X: 5
T: The Flower Of The Flock
R: reel
M: 4/4
L: 1/8
K: Gmaj
DEGA BG~G2|cGBG AGEG|DEGA ~B2Be|1dBAB ~G2GE:|2dBAB ~G2G2||
~g2ge dBGB|A2AB AGEF|~g2ge d2 (3Bcd|ea~a2 agef|
~g2ge dBGB|A2AB AGEG|DEGA ~B2Be|dBAB ~G2GE||


Tune 585	Setting 13581

